X:1
T:Title
%%score { 1 | ( 2 3 ) }
L:1/8
M:4/4
K:Ab
V:1 treble nm="Grand Piano"
V:2 bass 
V:3 bass 
V:1
 z4 z2[Q:1/4=100] [CE]2 | [CA]3 [CA] [CA]2 c2 | e4 c2 [EA]2 | B3 B c2 d2 | [Ec]6 [DE]2 | %5
 [CA]3 [CA] [CA]2 c2 | e4 c2 [EA]2 | c3 c c2 B2 |[M:3/4] [CA]6 |[M:1/4] E2 |[M:4/4] B3 c d2 c2 | %11
 c4 B2 B2 | [Ec]2 [_Ge]2 [Fd]2 [FB]2 | A4 G2 [Ge]2 | [Ae]3 [Ec] [Ec]2 [CA]2 | [FA]4 F2 F2 | %16
 E3 c c2 B2 |[M:3/4] [CA]6 |] %18
V:2
 z4 z2 [A,,A,]2 | [A,,A,]3 [A,,A,] [A,,A,]2 [A,E]2 | [A,CE]4 [A,E]2 [C,A,]2 | %3
 [E,G,E]3 [E,G,E] [E,A,E]2 [E,B,E]2 | [A,,A,]6 [E,G,]2 | [A,,A,]3 [A,,A,] [A,,A,]2 [A,E]2 | %6
 [A,CE]4 [A,E]2 [C,A,]2 | [E,A,E]3 [E,A,E] [E,A,E]2 [E,G,D]2 |[M:3/4] [A,,A,]6 |[M:1/4] [E,G,]2 | %10
[M:4/4] [E,G,E]3 [E,A,E] [E,B,E]2 [E,A,E]2 | [E,A,E]4 [E,G,E]2 [E,G,E]2 | %12
 [A,,A,]2 [C,A,]2 [D,A,]2 [D,D]2 | C4 z4 | [A,C]3 [A,,A,] [A,,A,]2 [A,,A,]2 | %15
 [D,A,]4 [D,A,D]2 [D,A,D]2 | [E,A,C]3 [E,A,E] [E,A,E]2 [E,G,D]2 |[M:3/4] [A,,A,]6 |] %18
V:3
 x8 | x8 | x8 | x8 | x8 | x8 | x8 | x8 |[M:3/4] x6 |[M:1/4] x2 |[M:4/4] x8 | x8 | x8 | %13
 [E,E]4- [E,B,E]2 [E,D]2 | x8 | x8 | x8 |[M:3/4] x6 |] %18

